X: 129013
T: TINK A TINK
%R: reel
B: James Kerr "Merry Melodies" v.1 p.29 s.0 #13
Z: 2016 John Chambers <jc:trillian.mit.edu>
M: 2/4
L: 1/16
K: A
|:\
A2ec A2ec | (de)dc BGE2 |\
A2ec A2ec | dBAG A4 :|\
ve2ag fedc | (Bc)de c2A2 |
e2ag fedc | (dB)AG A2A2 |\
e2ag fedc | (Bc)de c2A2 |\
e2ag fedc | (dB)AG A4 |]

%%sep 1 1 500
%%sep 1 1 500

